X:1
T:Title
%%score { ( 1 3 ) | 2 }
L:1/8
M:4/4
K:C
V:1 treble nm="Grand Piano"
V:3 treble 
V:2 bass 
V:1
 z4 z2[Q:1/4=100] EF | [EG]2 [EG][EG] A2 BB | [Ec]6 [EG][EG] | [Gc]2 [Gc][Gc] [Gc]2 Bc | %4
[M:3/4] d6 |[M:1/4] [ce][Bd] |[M:4/4] [Gc]2 [Gc][Gc] [Gc][ce][Bd][Ac] | A6 AA | %8
 [EG]2 [EG][EG] B2 AB |[M:3/4] [Gc]6 |[M:1/4] [EG][EG] |[M:4/4] [Gc]6 z2 | [FA]6 z2 | %13
 G2 [EG][EG] B2 AB |[M:3/4] [Ec]6 |] %15
V:2
 z4 z2 [C,G,][C,A,] | [C,G,]2 [C,G,][C,G,][K:treble] [F,A,F]2 [G,B,G][G,B,G] | %2
 [C,G,]6 [C,G,][C,G,] | [C,G,]2 [C,G,][C,G,] [C,G,]2[K:treble] [G,B,G][G,CG] |[M:3/4] [G,G]6 | %5
[M:1/4][K:bass] [C,G,][C,G,] |[M:4/4] [C,G,]2 [C,G,][C,G,] [C,G,][E,G,][D,G,][C,E,] | %7
 [F,A,F]6 [F,A,F][F,A,F] | [C,G,]2 [C,G,][C,G,][K:treble] [G,G]2 [A,F][G,G] | %9
[M:3/4][K:bass] [C,C]6 |[M:1/4] [C,G,][C,G,] |[M:4/4] [C,G,]2 C,C, C,2 [C,G,][E,G,] | %12
 [F,A,]2 F,F, F,2 [F,A,F][F,A,F] | [E,G,E]2 [C,G,][C,G,][K:treble] [G,G]2 [F,A,F][G,G] | %14
[M:3/4][K:bass] [C,C]6 |] %15
V:3
 x8 | x8 | x8 | x8 |[M:3/4] x6 |[M:1/4] x2 |[M:4/4] x8 | x8 | x8 |[M:3/4] x6 |[M:1/4] x2 | %11
[M:4/4] z2 G,G, G,2 [Gc][GB] | z2 A,A, A,2 AA | x8 |[M:3/4] x6 |] %15

